app/dist/common/images/great-elm-725-notes-due-2027.svg

<svg height="18" viewBox="0 0 18 18" width="18" xmlns="http://www.w3.org/2000/svg"><path d="m0 0h18v18h-18z" fill="#f0f3fa"/><path d="m8 11.75 1-.75 1 .75v3.25h-2zm1-8.75 5 4.92-1.17 1.15-4.83-5.07v2l3.84 4.04-1.02 1-2.82-3.04v1.9l-1 .96-1.04-1.01 2.04-1.85v-2l-3.05 2.85-.95-.93z" fill="#06563f"/></svg>

<!-- by TradingView --><svg width="18" height="18" viewBox="0 0 18 18" xmlns="http://www.w3.org/2000/svg"><path fill="#F0F3FA" d="M0 0h18v18H0z"/><path d="M8 11.75 9 11l1 .75V15H8v-3.25ZM9 3l5 4.92-1.17 1.15L8 4v2l3.84 4.04-1.02 1L8 8v1.9l-1 .96-1.04-1.01L8 8V6L4.95 8.85 4 7.92 9 3Z" fill="#06563F"/></svg>
